src/svg/zoom-in.svg

<?xml version="1.0" encoding="UTF-8"?><svg id="_イヤー_2" xmlns="http://www.w3.org/2000/svg" viewBox="0 0 591.02334 591.02334"><defs><style>.cls-1{fill:#040000;}.cls-2{fill:#050101;}</style></defs><g id="Components"><g id="SliceIcon" transform="translate(-89.000000, -55.000000)"><g id="Icons" transform="translate(46.000000, 54.000000)"><g id="Icons_Loupe-Icon" transform="translate(43.000000, 1.000000)"><path id="Loupe-Icon" class="cls-1" d="M477.42259,518.12494c11.28421,11.42487,29.52363,11.42487,40.80785,0,11.28421-11.42487,11.28421-29.90715,0-41.33202l-89.04687-88.9963c25.18422-33.75362,40.09341-75.62427,40.09341-120.97743,0-111.83183-90.65051-202.48945-202.4736-202.48945S64.32974,154.98736,64.32974,266.81919s90.65053,202.48945,202.47363,202.48945c45.52022,0,87.53198-15.02276,121.34857-40.38129l89.27065,89.19759ZM122.17935,266.81919c0-79.87987,64.75038-144.63532,144.62402-144.63532s144.62402,64.75545,144.62402,144.63532-64.75039,144.63532-144.62402,144.63532-144.62402-64.75543-144.62402-144.63532Z"/></g></g></g></g><path class="cls-2" d="M345.72231,242.65653h-54.75634v-54.75641c0-13.34436-10.81794-24.16256-24.16256-24.16256h-.00007c-13.34462,0-24.16256,10.8182-24.16256,24.16256v54.75641h-54.75634c-13.34465,0-24.16259,10.81791-24.16259,24.16256h0c0,13.34465,10.81794,24.16285,24.16259,24.16285h54.75634v54.75612c0,13.34465,10.81794,24.16256,24.16256,24.16256h.00007c13.34462,0,24.16256-10.81791,24.16256-24.16256v-54.75612h54.75634c13.34465,0,24.16259-10.8182,24.16259-24.16285h0c0-13.34465-10.81794-24.16256-24.16259-24.16256Z"/></svg>

<svg id="レイヤー_2" data-name="レイヤー 2" xmlns="http://www.w3.org/2000/svg" viewBox="0 0 591.02 591.02"><defs><style>.cls-1{fill:#040000;}.cls-2{fill:#050101;}</style></defs><g id="Components"><g id="SliceIcon"><g id="Icons"><g id="Icons_Loupe-Icon" data-name="Icons/Loupe-Icon"><path id="Loupe-Icon" class="cls-1" d="M477.42,518.12a28.57,28.57,0,0,0,40.81,0,29.47,29.47,0,0,0,0-41.33l-89.05-89a201.6,201.6,0,0,0,40.1-121C469.28,155,378.63,64.33,266.8,64.33S64.33,155,64.33,266.82,155,469.31,266.8,469.31a201.55,201.55,0,0,0,121.35-40.38ZM122.18,266.82A144.63,144.63,0,1,1,266.8,411.45,144.63,144.63,0,0,1,122.18,266.82Z"/></g></g></g></g><path class="cls-2" d="M345.72,242.66H291V187.9a24.17,24.17,0,0,0-24.17-24.16h0a24.16,24.16,0,0,0-24.16,24.16v54.76H187.88a24.16,24.16,0,0,0-24.16,24.16h0A24.16,24.16,0,0,0,187.88,291h54.76v54.76A24.16,24.16,0,0,0,266.8,369.9h0A24.17,24.17,0,0,0,291,345.74V291h54.75a24.16,24.16,0,0,0,24.16-24.16h0A24.15,24.15,0,0,0,345.72,242.66Z"/></svg>
